images/spiral.svg

<svg height="225" viewBox="0 0 225 225" width="225" xmlns="http://www.w3.org/2000/svg"><path d="m212.403978 43.0189096-13.538853-7.135811c-.16519-.0866428-.343773-.1288534-.522357-.1288534-.23439 0-.471013.0755347-.669687.222161l-1.897449 1.4129439-12.165993-4.7320291c-.131705-.051097-.267875-.0755347-.406277-.0755347-.325915 0-.640668.1399614-.859433.3998897l-1.533585 1.8350498-14.045583-3.7767368c-.098221-.0266593-.196442-.039989-.29243-.039989-.392884 0-.767909.2066097-.968815.5598457l-1.20767 2.0994214-15.563542-2.6437158c-.062505-.0111081-.127241-.0155513-.189745-.0155513-.497802 0-.94426.3310199-1.075965.8264389l-.558073 2.0949781-16.425207-.9352977c-.020091-.0022217-.042414-.0022217-.062505-.0022217-.283501 0-.558073.1088589-.767908.3043606-.223229.2088313-.348238.5020838-.348238.8064444v1.69731l-17.438668.5598457c-.602718.0199945-1.078197.5109702-1.078197 1.1108049v1.8039473l-16.9587246 2.2482692c-.5536085.0733131-.9688149.5442944-.9688149 1.1019185v1.8950333l-16.0635757 3.7589639c-.5044981.1177454-.8616648.5665106-.8616648 1.0819241v2.1816209l-14.9809139 5.0919299c-.4509231.1532911-.7545148.575397-.7545148 1.0508215v2.0883133l-13.3223207 6.6315056c-.3772574.1888368-.6161127.5731753-.6161127.9930596v2.1793993l-11.4516597 7.6001275c-.312521.2066097-.4978012.5531809-.4978012.9241897v2.4970896l-9.0184611 8.5931871c-.2209969.2110529-.343773.4998622-.343773.8020012v2.6192781l-6.7616135 9.4262912c-.1361698.188836-.2076032.415441-.2076032.646488v2.568181l-3.9154408 10.108325c-.0468781.126632-.0736656.26215-.0736656.39989v2.974736l-.9866732 10.401577-.0044646 2.879207v14.273843c0 .06887.0066969.13774.0200906.20661l1.9912048 10.503772c.0178583.093307.0468781.17995.0870594.266593l4.7771056 10.112768c.037949.077757.0825948.15107.1384021.21994l7.7683774 9.708435c.0424135.053319.0892917.104416.1428667.148848l10.1591624 8.726483c.0446459.035546.0892917.06887.1361699.099973l12.3468089 7.724538c.183048.115523.3884189.171064.5960221.171064.1942094 0 .3861865-.048876.5603053-.148848l45.4070585-26.170565c.3460054-.199945.5580731-.564289.5580731-.961957v-2.774791c0-.39989-.2165323-.768677-.5670022-.968622l-5.4133089-3.05027v-2.126081c0-.346571-.1629574-.675369-.4397616-.884201l-4.5382504-3.432387v-2.226053c0-.266593-.0959885-.5243-.2723396-.724245l-3.5091636-4.047773v-2.561516c0-.197724-.053575-.393225-.1540282-.566511-.9442596-1.588451-2.0112954-3.510144-2.3528361-4.287707l.9688149-1.930579 2.7010737-4.218837 3.8172199-3.990012 5.4043798-3.459046 6.0584414-2.914753 7.2348591-2.532635 7.49827-1.568456 8.270643-.975287 8.054111-.191059 8.007233.588727 7.837578 1.364069 7.49827 2.352684 6.404447 2.717029 5.714668 3.330194c.174119.102194.368329.151069.56477.151069.191977 0 .383955-.048875.555841-.146626l45.407059-25.966177c.346005-.197723.560305-.564289.560305-.964179v-56.8865428c-.002232-.4109979-.232158-.7908931-.596022-.9819516zm-.537122 57.6251744-44.759207 25.540052v-56.0463499l44.759207-25.5400524zm-115.580737 65.800592-44.7592068 25.46184v-1.733629l44.7592068-25.461839zm52.746142-133.7449593 15.242527 2.585838-17.937092 31.5936362c-.008893.0154708 0 .0331517-.00667.0508327-.00667.0176809-.028902.0243113-.035572.0442023-.00667.0221012.011116.0419923.00667.0640935-.002223.0221011-.024456.037572-.024456.0596731v2.4289197l-6.932059-1.2045143 8.999671-33.0567342s0 0 0-.0022102zm17.86126 0 13.811861 3.6991541-26.809672 30.0790248c-.01799.0200557-.011244.0467965-.024736.0690806-.013493.0222841-.042727.0267409-.051722.0512533-.013492.0311977.004498.060167 0 .0913647-.006746.0311977-.03598.0490249-.03598.082451v2.1882947l-6.505652-1.8651758 18.176697-31.913003h.002249zm16.244425 1.6997167 11.731742 4.5698164-34.672427 27.5369295c-.006703.004454-.006703.015589-.013405.0222701-.020108.017816-.029045.0423131-.046918.0623561-.013405.0155891-.037981.0178161-.046918.0378591-.017874.0289511-.002234.0623562-.013405.0935343-.013405.0378591-.035747.0668102-.037982.1068963-.002234.008908-.011171.015589-.011171.024497v2.1067477l-5.384403-2.2737731 26.698596-30.1358456c.002234-.002227 0-.004454.002234-.006681.002235-.002227.004469 0 .004469-.002227zm15.066519 2.8328612 12.529246 6.6746237-44.320568 25.6199939-4.971217-2.9334334 34.605009-27.7367199zm-119.4820854 102.2213624v.193353l-62.3229462 5.800582v-2.129155l62.3229462-5.802856zm-.6514258-6.838427.6514258 3.734752-62.2089328 5.698177-1.8137301-9.631728zm60.1222812-64.3410601c-.002249.0066213.004497.0132427.002249.019864-.002249.0066213-.008995.0110355-.011243.0176569-.002249.0132426.011243.0242782.008994.039728 0 .0132426-.01574.0220711-.01574.0375209v2.271117l-7.33047-.6974471v-33.2766094-2.2865668l16.430595.9225723zm-7.912782 2.4980314v2.5446833l-7.412014.1760332-10.151725-35.6990994 17.563739-.5615238zm-18.681987-30.1404733 10.183404 35.3710493-7.608885.889574-19.5865827-34.0355847zm2.251392 36.9894279v.9709121l-19.2634557-33.5855407v-.9753658zm-19.9112072-31.8902777 19.3446352 34.1132007-6.695281 1.5808503-28.4321976-31.9972935zm11.9791962 36.5169342v1.4434057l-28.3286119-31.7883382v-1.6394238zm-29.0257496-29.1514951 28.4591776 31.9040462-6.4510431 2.0902881-36.6084472-29.0135526zm21.6603105 34.4414908v1.8191324l-36.8271954-28.9673719v-1.6275289zm-37.472617-26.5094795 36.9060448 29.1721136-5.3319905 2.5559317-44.5263664-25.3161058zm31.2403224 32.6314462v1.9294603l-44.7592068-25.4578506v-1.7376168zm-45.0697197-22.9997181 44.5031475 25.8294592-4.7564022 3.0657249-50.7676771-21.5293943zm39.4039973 29.1686147v1.9928586l-50.9915014-21.2410078v-1.9884542zm-50.896155-18.4037422 50.896155 21.5923078-3.3281947 3.336871-56.1618903-16.6798789zm46.9301494 25.7108668v2.051173l-56.0906516-16.6434819v-2.0534021zm-56.488772-13.8128498 56.488772 16.7533888-2.316546 3.643212-60.5729724-11.418687zm54.222483 20.8138288v1.849061l-60.6232294-11.184295v-1.846867zm-60.952268-8.34924 60.3856958 11.347353-1.4828836 3.950098-62.5397793-5.875076zm59.2525513 16.198447v1.931865l-62.8895184-5.802414v-2.129597zm-63.1202218-2.600713 62.5536496 5.708436-.1648905 3.923292h-63.2912002zm62.5536496 10.200567v2.128045l-63.4560907-.203966v-1.926346h63.4560907zm-27.0825828 60.054391-11.4443294-7.278006 50.9642191-21.050606 5.1264324 2.862211zm38.9805998-29.338062-50.9915015 21.40605v-1.626286l50.9915015-21.603175zm-51.2939102 18.573189-9.3293193-8.134827 55.8778532-16.227779 4.178804 3.140647zm46.19476-24.791349-56.0906515 16.292766v-1.837547l56.0906515-16.292765zm-56.3640904 13.459904-7.0920002-8.821171 59.7404835-11.008857 3.1490349 3.609461zm52.964657-20.616764-60.0566572 10.985036v-1.846556l60.0544249-11.184605v2.046125zm-60.2129246 8.152175-4.3763105-9.127385 62.4604614-5.603493 2.1287737 3.532685z" fill="#e0be41"/></svg>

<?xml version="1.0" encoding="UTF-8"?>
<svg width="225px" height="225px" viewBox="0 0 225 225" version="1.1" xmlns="http://www.w3.org/2000/svg" xmlns:xlink="http://www.w3.org/1999/xlink">
    <!-- Generator: Sketch 50.2 (55047) - http://www.bohemiancoding.com/sketch -->
    <title>Artboard</title>
    <desc>Created with Sketch.</desc>
    <defs></defs>
    <g id="Artboard" stroke="none" stroke-width="1" fill="none" fill-rule="evenodd">
        <path d="M212.403978,43.0189096 L198.865125,35.8830986 C198.699935,35.7964558 198.521352,35.7542452 198.342768,35.7542452 C198.108378,35.7542452 197.871755,35.8297799 197.673081,35.9764062 L195.775632,37.3893501 L183.609639,32.657321 C183.477934,32.606224 183.341764,32.5817863 183.203362,32.5817863 C182.877447,32.5817863 182.562694,32.7217477 182.343929,32.981676 L180.810344,34.8167258 L166.764761,31.039989 C166.66654,31.0133297 166.568319,31 166.472331,31 C166.079447,31 165.704422,31.2066097 165.503516,31.5598457 L164.295846,33.6592671 L148.732304,31.0155513 C148.669799,31.0044432 148.605063,31 148.542559,31 C148.044757,31 147.598299,31.3310199 147.466594,31.8264389 L146.908521,33.921417 L130.483314,32.9861193 C130.463223,32.9838976 130.4409,32.9838976 130.420809,32.9838976 C130.137308,32.9838976 129.862736,33.0927565 129.652901,33.2882582 C129.429672,33.4970895 129.304663,33.790342 129.304663,34.0947026 L129.304663,35.7920126 L111.865995,36.3518583 C111.263277,36.3718528 110.787798,36.8628285 110.787798,37.4626632 L110.787798,39.2666105 L93.8290734,41.5148797 C93.2754649,41.5881928 92.8602585,42.0591741 92.8602585,42.6167982 L92.8602585,44.5118315 L76.7966828,48.2707954 C76.2921847,48.3885408 75.935018,48.837306 75.935018,49.3527195 L75.935018,51.5343404 L60.9541041,56.6262703 C60.503181,56.7795614 60.1995893,57.2016673 60.1995893,57.6770918 L60.1995893,59.7654051 L46.8772686,66.3969107 C46.5000112,66.5857475 46.2611559,66.970086 46.2611559,67.3899703 L46.2611559,69.5693696 L34.8094962,77.1694971 C34.4969752,77.3761068 34.311695,77.722678 34.311695,78.0936868 L34.311695,80.5907764 L25.2932339,89.1839635 C25.072237,89.3950164 24.9494609,89.6838257 24.9494609,89.9859647 L24.9494609,92.6052428 L18.1878474,102.031534 C18.0516776,102.22037 17.9802442,102.446975 17.9802442,102.678022 L17.9802442,105.246203 L14.0648034,115.354528 C14.0179253,115.48116 13.9911378,115.616678 13.9911378,115.754418 L13.9911378,118.729154 L13.0044646,129.130731 L13,132.009938 L13,146.283781 C13,146.352651 13.0066969,146.421521 13.0200906,146.490391 L15.0112954,156.994163 C15.0291537,157.08747 15.0581735,157.174113 15.0983548,157.260756 L19.8754604,167.373524 C19.9134094,167.451281 19.9580552,167.524594 20.0138625,167.593464 L27.7822399,177.301899 C27.8246534,177.355218 27.8715316,177.406315 27.9251066,177.450747 L38.084269,186.17723 C38.1289149,186.212776 38.1735607,186.2461 38.2204389,186.277203 L50.5672478,194.001741 C50.7502958,194.117264 50.9556667,194.172805 51.1632699,194.172805 C51.3574793,194.172805 51.5494564,194.123929 51.7235752,194.023957 L97.1306337,167.853392 C97.4766391,167.653447 97.6887068,167.289103 97.6887068,166.891435 L97.6887068,164.116644 C97.6887068,163.716754 97.4721745,163.347967 97.1217046,163.148022 L91.7083957,160.097752 L91.7083957,157.971671 C91.7083957,157.6251 91.5454383,157.296302 91.2686341,157.08747 L86.7303837,153.655083 L86.7303837,151.42903 C86.7303837,151.162437 86.6343952,150.90473 86.4580441,150.704785 L82.9488805,146.657012 L82.9488805,144.095496 C82.9488805,143.897772 82.8953055,143.702271 82.7948523,143.528985 C81.8505927,141.940534 80.7835569,140.018841 80.4420162,139.241278 L81.4108311,137.310699 L84.1119048,133.091862 L87.9291247,129.10185 L93.3335045,125.642804 L99.3919459,122.728051 L106.626805,120.195416 L114.125075,118.62696 L122.395718,117.651673 L130.449829,117.460614 L138.457062,118.049341 L146.29464,119.41341 L153.79291,121.766094 L160.197357,124.483123 L165.912025,127.813317 C166.086144,127.915511 166.280354,127.964386 166.476795,127.964386 C166.668772,127.964386 166.86075,127.915511 167.032636,127.81776 L212.439695,101.851583 C212.7857,101.65386 213,101.287294 213,100.887404 L213,44.0008612 C212.997768,43.5898633 212.767842,43.2099681 212.403978,43.0189096 Z M211.866856,100.644084 L167.107649,126.184136 L167.107649,70.1377861 L211.866856,44.5977337 L211.866856,100.644084 Z M96.286119,166.444676 L51.5269122,191.906516 L51.5269122,190.172887 L96.286119,164.711048 L96.286119,166.444676 Z M149.032261,32.6997167 L164.274788,35.2855547 L146.337696,66.8791909 C146.328803,66.8946617 146.337696,66.9123426 146.331026,66.9300236 C146.324356,66.9477045 146.302124,66.9543349 146.295454,66.9742259 C146.288784,66.9963271 146.30657,67.0162182 146.302124,67.0383194 C146.299901,67.0604205 146.277668,67.0758914 146.277668,67.0979925 L146.277668,69.5269122 L139.345609,68.3223979 L148.34528,35.2656637 C148.34528,35.2656637 148.34528,35.2656637 148.34528,35.2634535 L149.032261,32.6997167 Z M166.893521,32.6997167 L180.705382,36.3988708 L153.89571,66.4778956 C153.87772,66.4979513 153.884466,66.5246921 153.870974,66.5469762 C153.857481,66.5692603 153.828247,66.5737171 153.819252,66.5982295 C153.80576,66.6294272 153.82375,66.6583965 153.819252,66.6895942 C153.812506,66.7207919 153.783272,66.7386191 153.783272,66.7720452 L153.783272,68.9603399 L147.27762,67.0951641 L165.454317,35.1821611 C165.454317,35.1821611 165.456566,35.1821611 165.456566,35.1821611 L166.893521,32.6997167 Z M183.137946,34.3994334 L194.869688,38.9692498 L160.197261,66.5061793 C160.190558,66.5106333 160.190558,66.5217683 160.183856,66.5284494 C160.163748,66.5462654 160.154811,66.5707625 160.136938,66.5908055 C160.123533,66.6063946 160.098957,66.6086216 160.09002,66.6286646 C160.072146,66.6576157 160.087786,66.6910208 160.076615,66.7221989 C160.06321,66.760058 160.040868,66.7890091 160.038633,66.8290952 C160.036399,66.8380032 160.027462,66.8446842 160.027462,66.8535922 L160.027462,68.9603399 L154.643059,66.6865668 L181.341655,36.5507212 C181.343889,36.5484942 181.341655,36.5462672 181.343889,36.5440402 C181.346124,36.5418132 181.348358,36.5440402 181.348358,36.5418132 L183.137946,34.3994334 Z M198.204465,37.2322946 L210.733711,43.9069183 L166.413143,69.5269122 L161.441926,66.5934788 L196.046935,38.8567589 L198.204465,37.2322946 Z M78.7223796,139.453657 L78.7223796,139.64701 L16.3994334,145.447592 L16.3994334,143.318437 L78.7223796,137.515581 L78.7223796,139.453657 Z M78.0709538,132.61523 L78.7223796,136.349982 L16.5134468,142.048159 L14.6997167,132.416431 L78.0709538,132.61523 Z M138.193235,68.2741699 C138.190986,68.2807912 138.197732,68.2874126 138.195484,68.2940339 C138.193235,68.3006552 138.186489,68.3050694 138.184241,68.3116908 C138.181992,68.3249334 138.195484,68.335969 138.193235,68.3514188 C138.193235,68.3646614 138.177495,68.3734899 138.177495,68.3889397 L138.177495,70.6600567 L130.847025,69.9626096 L130.847025,36.6860002 L130.847025,34.3994334 L147.27762,35.3220057 L138.193235,68.2741699 Z M130.280453,70.7722013 L130.280453,73.3168846 L122.868439,73.4929178 L112.716714,37.7938184 L130.280453,37.2322946 L130.280453,70.7722013 Z M111.598466,40.631728 L121.78187,76.0027773 L114.172985,76.8923513 L94.5864023,42.8567666 L111.598466,40.631728 Z M113.849858,77.6211559 L113.849858,78.592068 L94.5864023,45.0065273 L94.5864023,44.0311615 L113.849858,77.6211559 Z M93.9386508,45.7308782 L113.283286,79.8440789 L106.588005,81.4249292 L78.1558074,49.4276357 L93.9386508,45.7308782 Z M105.917847,82.2478124 L105.917847,83.6912181 L77.5892351,51.9028799 L77.5892351,50.2634561 L105.917847,82.2478124 Z M76.8920974,53.0963173 L105.351275,85.0003635 L98.9002319,87.0906516 L62.2917847,58.077099 L76.8920974,53.0963173 Z M98.5524079,87.5378081 L98.5524079,89.3569405 L61.7252125,60.3895686 L61.7252125,58.7620397 L98.5524079,87.5378081 Z M61.0797909,61.0283286 L97.9858357,90.2004422 L92.6538452,92.7563739 L48.1274788,67.4402681 L61.0797909,61.0283286 Z M92.3201133,93.6597748 L92.3201133,95.5892351 L47.5609065,70.1313845 L47.5609065,68.3937677 L92.3201133,93.6597748 Z M47.2503936,70.6600567 L91.7535411,96.4895159 L86.9971389,99.5552408 L36.2294618,78.0258465 L47.2503936,70.6600567 Z M86.6543909,99.8286714 L86.6543909,101.82153 L35.6628895,80.5805222 L35.6628895,78.592068 L86.6543909,99.8286714 Z M35.7582359,81.4249292 L86.6543909,103.017237 L83.3261962,106.354108 L27.1643059,89.6742291 L35.7582359,81.4249292 Z M82.6883853,107.135796 L82.6883853,109.186969 L26.5977337,92.5434871 L26.5977337,90.490085 L82.6883853,107.135796 Z M26.1996133,93.3229462 L82.6883853,110.076335 L80.3718393,113.719547 L19.7988669,102.30086 L26.1996133,93.3229462 Z M80.4220963,114.136775 L80.4220963,115.985836 L19.7988669,104.801541 L19.7988669,102.954674 L80.4220963,114.136775 Z M19.4698283,105.787535 L79.8555241,117.134888 L78.3726405,121.084986 L15.8328612,115.20991 L19.4698283,105.787535 Z M78.7223796,121.985982 L78.7223796,123.917847 L15.8328612,118.115433 L15.8328612,115.985836 L78.7223796,121.985982 Z M15.6021578,119.385269 L78.1558074,125.093705 L77.9909169,129.016997 L14.6997167,129.016997 L15.6021578,119.385269 Z M78.1558074,129.585836 L78.1558074,131.713881 L14.6997167,131.509915 L14.6997167,129.583569 L78.1558074,129.583569 L78.1558074,129.585836 Z M51.0732246,189.640227 L39.6288952,182.362221 L90.5931143,161.311615 L95.7195467,164.173826 L51.0732246,189.640227 Z M90.0538244,160.302165 L39.0623229,181.708215 L39.0623229,180.081929 L90.0538244,158.478754 L90.0538244,160.302165 Z M38.7599142,178.875354 L29.4305949,170.740527 L85.3084481,154.512748 L89.4872521,157.653395 L38.7599142,178.875354 Z M84.9546742,154.084005 L28.8640227,170.376771 L28.8640227,168.539224 L84.9546742,152.246459 L84.9546742,154.084005 Z M28.5905838,167.543909 L21.4985836,158.722738 L81.2390671,147.713881 L84.388102,151.323342 L28.5905838,167.543909 Z M81.5552408,146.927145 L21.4985836,157.912181 L21.4985836,156.065625 L81.5530085,144.88102 L81.5530085,146.927145 L81.5552408,146.927145 Z M21.3423162,155.07932 L16.9660057,145.951935 L79.4264671,140.348442 L81.5552408,143.881127 L21.3423162,155.07932 Z" id="Shape" fill="#E0BE41" fill-rule="nonzero"></path>
    </g>
</svg>
